img/social-telegram.svg

<svg width="18" height="18" viewBox="0 0 18 18" fill="none" xmlns="http://www.w3.org/2000/svg">
<path d="M7.07482 14.2499C6.63523 14.2499 6.70993 14.0839 6.55832 13.6654L5.26562 9.41098L15.2162 3.50781" fill="#ECECEC"/>
<path d="M7.07324 14.2503C7.41247 14.2503 7.56235 14.0952 7.75169 13.9111L9.56089 12.1519L7.30414 10.791" fill="#BBBBBB"/>
<path d="M7.30396 10.7914L12.7722 14.8314C13.3962 15.1757 13.8466 14.9975 14.002 14.2521L16.2279 3.76294C16.4558 2.84927 15.8796 2.43488 15.2827 2.70589L2.21238 7.74575C1.32021 8.10359 1.32541 8.60134 2.04976 8.82312L5.40389 9.87L13.1691 4.97104C13.5356 4.74875 13.8721 4.86826 13.596 5.11333" fill="white"/>
</svg>

<svg width="18" height="18" fill="none" xmlns="http://www.w3.org/2000/svg"><path d="M7.075 14.25c-.44 0-.365-.166-.517-.585L5.266 9.411l9.95-5.903" fill="#ECECEC"/><path d="M7.073 14.25c.34 0 .49-.155.679-.339l1.809-1.76-2.257-1.36" fill="#BBB"/><path d="m7.304 10.791 5.468 4.04c.624.345 1.075.167 1.23-.579l2.226-10.49c.228-.913-.348-1.327-.945-1.056l-13.07 5.04c-.893.358-.888.855-.163 1.077L5.404 9.87l7.765-4.899c.367-.222.703-.103.427.142" fill="#fff"/></svg>
